!!!COM: (Edward) Benjamin Britten
!!!OTL: [T815_Bri-w35p3m24-31]
**kern	**kern	**dynam	**kern	**dynam
*grp:A	*grp:A	*	*grp:B	*
*part2	*part2	*part2	*part1	*part1
*staff3	*staff2	*	*staff1	*
*I"Piano	*	*	*I"Horn (Concert pitch)	*
*I'Pno.	*	*	*I'Hn.	*
*clefF4	*clefG2	*	*clefF4	*
*k[]	*k[]	*	*k[]	*
*C:	*C:	*	*C:	*
*M2/4	*M2/4	*	*M2/4	*
!!!ONB: The original score includes a secondary time signature 6/8 in addition to the 2/4 for the piano part
*	*	*	*Xtuplet	*
!!LO:TX:B:a:t=VARIATION I
!LO:TX:b:i:t=(no Ped)	!LO:TX:a:B:t=([quarter-dot] = 68)	!	!LO:TX:t=Gently moving ([quarter]=68)	!
8GGG-X`>L 8BBB-X	4.r	pp	8%3r	.
8GGG-`> 8BBB-	.	.	.	.
8GGG-`>J 8BBB-	.	.	.	.
8GGG-`>L 8BBB-	8r	.	(16%3DL	pp
8GGG-`> 8BBB-	8r	.	.	.
.	.	.	16%3F#XJ	.
8GGG-`>J 8BBB-	8c`> 8d 8f	.	.	.
=1	=1	=1	=1	=1
4.r	8c`>L 8d 8f	.	16%3A	.
.	8c`> 8d 8f	.	.	.
.	.	.	8%3.c)	.
.	8c`>J 8d 8f	.	.	.
8BBBn`>L 8DD 8AA	8c`>L 8d 8f	.	.	.
8BBB`> 8DD 8AA	8c`>J 8d 8f	.	.	.
8BBB`>J 8DD 8AA	8r	.	.	.
=2	=2	=2	=2	=2
8BBB`>L 8DD 8AA	8r	.	4%3Fn~	.
8BBB`> 8DD 8AA	8e-X`>L 8f 8b-X	.	.	.
8BBB`>J 8DD 8AA	8e-`>J 8f 8b-	.	.	.
4.r	8e-`>L 8f 8b-	.	.	.
.	8e-`> 8f 8b-	.	.	.
.	8e-`>J 8f 8b-	.	.	.
*	*	*	*clefG2	*
=3	=3	=3	=3	=3
8AAA-X`>L 8BBB-X 8AA-X	8e-X`> 8f 8b-X	<	(>16%3dL	<
8AAA-`> 8BBB- 8AA-	8r	.	.	.
.	.	.	16%3B-XJ	.
8AAA-`>J 8BBB- 8AA-	8r	.	.	.
8AAA-`>L 8BBB- 8AA-	8r	.	16%3GL	.
8AAA-`> 8BBB- 8AA-	8r	.	.	.
*	*clefF4	*	*	*
.	.	.	[16%3EJ	.
8AAA-`>J 8BBB- 8AA-	8En`> 8B-X 8d-X	.	.	.
!!linebreak:original
=4	=4	=4	=4	=4
8r	8E`>L 8B-X 8d-X	.	8%3E])	.
8r	8E`> 8B- 8d-	.	.	.
8AAAn`> 8GGn	8E`>J 8B- 8d-	.	.	.
8AAA`>L 8GG	8E`>L 8B- 8d-	.	[8%3c~	.
8AAA`> 8GG	8E`>J 8B- 8d-	.	.	.
8AAA`>J 8GG	8r	.	.	.
*	*clefG2	*	*	*
=5	=5	=5	=5	=5
8AAA`>L 8GG	8f#X`>L 8cc#X 8ff#X	.	8%3.c]	.
8AAA`>J 8GG	8f#`> 8cc# 8ff#	.	.	.
8r	8f#`>J 8cc# 8ff#	.	.	.
8BB`>L 8D#X 8G#X	8f#`>L 8cc# 8ff#	.	.	.
8BB`> 8D# 8G#	8f#`> 8cc# 8ff#	.	.	.
.	.	.	16%3r	.
!	!	!LO:DY:t=( %s )	!	!
8BB`>J 8D# 8G#	8f#`>J 8cc# 8ff#	mf	.	.
=6	=6	=6	=6	=6
!	!	!	!	!
!	!	!	!	!LO:DY:t=( %s )
8BB`>L 8D#X 8G#X	8r	.	(16%3A-XL	p
8BB`> 8D# 8G#	8r	.	.	.
.	.	.	16%3c-XJ	.
8BB`>J 8D# 8G#	8d-X`> 8e-X 8b-X	.	.	.
8r`>	8d-`>L 8e- 8b-	.	16%3e-XL)	.
8Fn`>L 8Gn	8d-`> 8e- 8b-	.	.	.
.	.	.	[16%3B-X~J	.
8F`>J 8G	8d-`>J 8e- 8b-	.	.	.
=7	=7	=7	=7	=7
8F`>L 8G	8d-X`>L 8e-X 8b-X	<	16%3B-L]	.
8F`> 8G	8d-`>J 8e- 8b-	.	.	.
.	.	.	(16%3gJi	<
8F`>J 8G	8r	[[	.	.
*	*clefF4	*	*	*
8F`> 8G	8AA-X`>L 8D-X	f	16%3enL	.
8r	8AA-`> 8D-	.	.	.
.	.	.	16%3c#XJ	.
8r	8AA-`>J 8D-	.	.	[[
=	=	=	=	=
*-	*-	*-	*-	*-
!!!system-decoration: s1[({(s2,s3)})]
!!!RDF**kern: i = marked note, color="hotpink", text="extra(
!!!RDF**kern: > = above
!!!EED:Jason Lee
!!!EEV:2022/01/28
